Sources/FrostedUI/Resources/Icons.xcassets/linkSlash20.imageset/link-slash-20.svg

<svg width="20" height="20" viewBox="0 0 20 20" fill="none" xmlns="http://www.w3.org/2000/svg" data-fui-icon="true">
  <path
    fill-rule="evenodd"
    clip-rule="evenodd"
    d="M10.7788 2.41053C11.682 1.50738 12.9069 1 14.1841 1 16.8439 1 19 3.15614 19 5.81586 19 7.09311 18.4926 8.31804 17.5895 9.22119L15.1731 11.6376C14.8802 11.9305 14.4053 11.9305 14.1124 11.6376 13.8195 11.3447 13.8195 10.8698 14.1124 10.5769L16.5288 8.16053C17.1507 7.53869 17.5 6.69529 17.5 5.81586 17.5 3.98456 16.0154 2.5 14.1841 2.5 13.3047 2.5 12.4613 2.84935 11.8395 3.47119L9.4231 5.88756C9.1302 6.18046 8.65533 6.18046 8.36244 5.88756 8.06954 5.59467 8.06954 5.1198 8.36244 4.8269L10.7788 2.41053zM5.88756 8.36244C6.18046 8.65533 6.18046 9.1302 5.88756 9.4231L3.47119 11.8395C2.84935 12.4613 2.5 13.3047 2.5 14.1841 2.5 16.0154 3.98456 17.5 5.81586 17.5 6.69529 17.5 7.53869 17.1507 8.16053 16.5288L10.5769 14.1124C10.8698 13.8195 11.3447 13.8195 11.6376 14.1124 11.9305 14.4053 11.9305 14.8802 11.6376 15.1731L9.22119 17.5895C8.31804 18.4926 7.09311 19 5.81586 19 3.15614 19 1 16.8439 1 14.1841 1 12.9069 1.50738 11.682 2.41053 10.7788L4.8269 8.36244C5.1198 8.06954 5.59467 8.06954 5.88756 8.36244zM2.98743 2.98742C3.28032 2.69452 3.7552 2.69452 4.04809 2.98742L17.0126 15.9519C17.3054 16.2448 17.3054 16.7196 17.0126 17.0125 16.7197 17.3054 16.2448 17.3054 15.9519 17.0125L2.98743 4.04808C2.69454 3.75518 2.69454 3.28031 2.98743 2.98742z"
    fill="currentColor"
  />
  <path
    fill-rule="evenodd"
    clip-rule="evenodd"
    d="M8.76256 11.2374C9.05546 11.5303 9.05546 12.0052 8.76256 12.2981L7.28033 13.7803C6.98744 14.0732 6.51256 14.0732 6.21967 13.7803 5.92678 13.4874 5.92678 13.0126 6.21967 12.7197L7.7019 11.2374C7.99479 10.9445 8.46967 10.9445 8.76256 11.2374zM13.7803 6.21964C14.0732 6.51253 14.0732 6.98741 13.7803 7.2803L12.2981 8.76253C12.0052 9.05543 11.5303 9.05543 11.2374 8.76254 10.9445 8.46964 10.9445 7.99477 11.2374 7.70188L12.7197 6.21964C13.0126 5.92675 13.4874 5.92675 13.7803 6.21964z"
    fill="currentColor"
  />
</svg>

<svg xmlns="http://www.w3.org/2000/svg" width="20" height="20" fill="none" data-fui-icon="true" viewBox="0 0 20 20"><path fill="currentColor" fill-rule="evenodd" d="M10.779 2.41a4.816 4.816 0 0 1 6.81 6.811l-2.416 2.417a.75.75 0 0 1-1.06-1.061l2.416-2.416a3.316 3.316 0 1 0-4.69-4.69L9.423 5.888a.75.75 0 1 1-1.06-1.061zM5.888 8.363a.75.75 0 0 1 0 1.061L3.47 11.84a3.316 3.316 0 1 0 4.69 4.69l2.416-2.417a.75.75 0 0 1 1.06 1.061L9.222 17.59a4.816 4.816 0 0 1-6.81-6.811l2.416-2.417a.75.75 0 0 1 1.06 0m-2.9-5.375a.75.75 0 0 1 1.06 0l12.965 12.965a.75.75 0 0 1-1.061 1.06L2.987 4.048a.75.75 0 0 1 0-1.06" clip-rule="evenodd"/><path fill="currentColor" fill-rule="evenodd" d="M8.763 11.237a.75.75 0 0 1 0 1.061L7.28 13.78a.75.75 0 0 1-1.06-1.06l1.482-1.483a.75.75 0 0 1 1.06 0M13.78 6.22a.75.75 0 0 1 0 1.06l-1.482 1.483a.75.75 0 0 1-1.06-1.061L12.72 6.22a.75.75 0 0 1 1.06 0" clip-rule="evenodd"/></svg>
